public/assets/img/Perish.svg

<svg height="67" viewBox="0 0 242 67" width="242" xmlns="http://www.w3.org/2000/svg" xmlns:xlink="http://www.w3.org/1999/xlink"><linearGradient id="a" x1="0%" x2="100%" y1="0%" y2="82.337277%"><stop offset="0" stop-color="#ee5e31"/><stop offset=".222046604" stop-color="#ffe500"/><stop offset=".412707731" stop-color="#90cc2d"/><stop offset=".602262464" stop-color="#2ee2e2"/><stop offset=".808232478" stop-color="#4986fc"/><stop offset="1" stop-color="#fd14ff"/></linearGradient><path d="m84.774 94.332 5.888-1.38c.644-5.244 1.748-11.408 2.392-13.248 2.3-2.208 6.072-4.692 8.372-5.704-2.392-.828-7.268-1.932-12.88-2.852-2.576-.368-3.404-1.656-3.956-3.404-.92-2.76-1.656-5.52-2.3-8.464 13.984-.184 31.74 1.564 38.64 7.82 6.256 5.612 11.684 16.928 12.052 21.712.276 3.588-.184 5.612-3.496 8.372-7.544 6.256-21.252 9.016-28.98 9.844l-1.656-1.84-2.116 10.672 2.3 2.116-.644 2.852-7.912 3.588-1.288-.736c-.092-6.44-.184-18.4.276-22.264l-.736-.368zm15.456-4.048c6.256-1.84 14.444-4.692 18.308-7.36-3.68-3.404-11.132-6.992-15.916-8.464-.644 5.52-1.748 12.144-2.392 15.824zm50.6 17.94 1.564 4.784 12.604-4.692-.092 5.704c-1.932 1.564-5.336 4.692-7.912 4.784-5.888.184-14.72-4.508-19.964-10.856-.368-16.744 10.396-25.76 10.948-26.036 1.656-.552 10.948 1.748 15.18 4.048.828 1.288 1.472 2.76 2.116 4.14-2.116 3.312-10.764 14.076-14.444 18.124zm0-8.556c2.208-2.76 5.52-7.176 6.716-9.936-3.312.092-6.44 3.956-6.716 9.936zm42.412 4.6c-2.484 2.024-6.532 5.244-10.396 7.36 1.84 1.012 3.312 2.208 4.968 3.588-8.28 6.808-16.744 5.428-16.744 1.472-.184-4.6 6.808-13.524 10.58-18.032-5.244-4.232-11.592-3.312-11.776-10.304-.092-2.76.736-7.452 1.288-8.004.644-.46 11.684 2.484 16.652 4.876 4.324 2.024 5.428 3.22 5.796 6.808.46 4.048-.092 9.476-.368 12.236zm26.588-15.64c-1.196 6.164-3.956 20.056-4.6 27.692l-2.576 1.748c-2.208-.92-5.98-2.484-6.624-3.22-1.38-1.38-2.944-6.624-3.312-8.648l-4.048-.092.184-6.256c6.164-9.476 11.132-12.512 18.676-14.536zm-9.108-7.084-6.532-4.416c2.76-2.852 6.992-7.084 8.096-7.82.736-.46 5.336-1.748 7.636-2.3l2.392 5.336zm17.112 11.132c5.704-6.44 17.48-11.96 21.16-13.064 2.208 1.472 3.404 2.392 5.428 4.784-2.944 1.472-9.66 5.52-12.512 10.396 4.232 1.656 11.224 5.98 11.224 9.016 0 5.336-7.176 13.984-19.412 19.78l-.092-5.244c2.116-1.564 5.152-4.324 5.98-7.544-1.748-.46-5.52-1.288-7.268-2.024-1.38-.552-2.208-1.748-2.76-3.68-1.38-4.6-1.748-9.936-1.748-12.42zm62.836 19.596.828 2.116-6.072 5.244c-1.38-4.324-3.128-8.556-7.544-13.248-4.416 3.036-9.752 9.66-13.156 16.652l-4.324 1.012c-2.024-8.372-2.668-18.584-2.024-22.724.368-2.668 12.42-27.968 23.368-41.676 3.312-.368 6.256-.276 8.924.368-.644 6.716-6.532 20.884-12.696 27.876-1.38 3.68-6.164 15.18-8.096 19.596l.552.276c4.324-7.912 8.28-13.064 12.88-19.596l2.208.184.828-1.472 4.416.184c1.38 7.36 2.852 20.608 2.392 21.896-.46 1.104-1.564 2.3-2.484 3.312zm20.884-12.604-.828 3.312-5.06 1.564c1.748-13.616-.368-22.448 3.864-38.364l-1.012-4.508c2.3-1.38 4.232-2.3 6.532-3.128 2.392.828 6.072 3.772 7.636 5.704 1.104 1.196 1.012 1.196.184 3.68-1.564 4.876-5.06 15.088-6.256 26.404-.276 2.76-1.012 3.496-5.06 5.336zm-.46 18.308-3.864-.092-3.864 3.22c-.92-.92-2.116-1.564-2.208-4.048 0-1.012 1.656-4.508 2.668-6.716.368-.736.828-1.288 1.656-1.932 1.656-1.196 5.612-2.392 6.716-2.484 1.38-.092 1.656.644 1.748 1.196 0 1.012-.736 7.728-2.852 10.856z" fill="url(#a)" fill-rule="evenodd" transform="translate(-82 -58)"/></svg>

<?xml version="1.0" encoding="UTF-8"?>
<svg width="242px" height="67px" viewBox="0 0 242 67" version="1.1" xmlns="http://www.w3.org/2000/svg" xmlns:xlink="http://www.w3.org/1999/xlink">
    <!-- Generator: Sketch 49 (51002) - http://www.bohemiancoding.com/sketch -->
    <title>Perish!</title>
    <desc>Created with Sketch.</desc>
    <defs>
        <linearGradient x1="0%" y1="2.77555756e-14%" x2="100%" y2="82.3372769%" id="linearGradient-1">
            <stop stop-color="#EE5E31" offset="0%"></stop>
            <stop stop-color="#FFE500" offset="22.2046604%"></stop>
            <stop stop-color="#90CC2D" offset="41.2707731%"></stop>
            <stop stop-color="#2EE2E2" offset="60.2262464%"></stop>
            <stop stop-color="#4986FC" offset="80.8232478%"></stop>
            <stop stop-color="#FD14FF" offset="100%"></stop>
        </linearGradient>
    </defs>
    <g id="✅-Splash-screen" stroke="none" stroke-width="1" fill="none" fill-rule="evenodd">
        <g id="type_experiment_5_rainbow" transform="translate(-425.000000, -418.000000)" fill="url(#linearGradient-1)">
            <g id="Group" transform="translate(343.000000, 360.000000)">
                <path d="M84.774,94.332 L90.662,92.952 C91.306,87.708 92.41,81.544 93.054,79.704 C95.354,77.496 99.126,75.012 101.426,74 C99.034,73.172 94.158,72.068 88.546,71.148 C85.97,70.78 85.142,69.492 84.59,67.744 C83.67,64.984 82.934,62.224 82.29,59.28 C96.274,59.096 114.03,60.844 120.93,67.1 C127.186,72.712 132.614,84.028 132.982,88.812 C133.258,92.4 132.798,94.424 129.486,97.184 C121.942,103.44 108.234,106.2 100.506,107.028 L98.85,105.188 L96.734,115.86 L99.034,117.976 L98.39,120.828 L90.478,124.416 L89.19,123.68 C89.098,117.24 89.006,105.28 89.466,101.416 L88.73,101.048 L84.774,94.332 Z M100.23,90.284 C106.486,88.444 114.674,85.592 118.538,82.924 C114.858,79.52 107.406,75.932 102.622,74.46 C101.978,79.98 100.874,86.604 100.23,90.284 Z M150.83,108.224 L152.394,113.008 L164.998,108.316 L164.906,114.02 C162.974,115.584 159.57,118.712 156.994,118.804 C151.106,118.988 142.274,114.296 137.03,107.948 C136.662,91.204 147.426,82.188 147.978,81.912 C149.634,81.36 158.926,83.66 163.158,85.96 C163.986,87.248 164.63,88.72 165.274,90.1 C163.158,93.412 154.51,104.176 150.83,108.224 Z M150.83,99.668 C153.038,96.908 156.35,92.492 157.546,89.732 C154.234,89.824 151.106,93.688 150.83,99.668 Z M193.242,104.268 C190.758,106.292 186.71,109.512 182.846,111.628 C184.686,112.64 186.158,113.836 187.814,115.216 C179.534,122.024 171.07,120.644 171.07,116.688 C170.886,112.088 177.878,103.164 181.65,98.656 C176.406,94.424 170.058,95.344 169.874,88.352 C169.782,85.592 170.61,80.9 171.162,80.348 C171.806,79.888 182.846,82.832 187.814,85.224 C192.138,87.248 193.242,88.444 193.61,92.032 C194.07,96.08 193.518,101.508 193.242,104.268 Z M219.83,88.628 C218.634,94.792 215.874,108.684 215.23,116.32 L212.654,118.068 C210.446,117.148 206.674,115.584 206.03,114.848 C204.65,113.468 203.086,108.224 202.718,106.2 L198.67,106.108 L198.854,99.852 C205.018,90.376 209.986,87.34 217.53,85.316 L219.83,88.628 Z M210.722,81.544 L204.19,77.128 C206.95,74.276 211.182,70.044 212.286,69.308 C213.022,68.848 217.622,67.56 219.922,67.008 L222.314,72.344 L210.722,81.544 Z M227.834,92.676 C233.538,86.236 245.314,80.716 248.994,79.612 C251.202,81.084 252.398,82.004 254.422,84.396 C251.478,85.868 244.762,89.916 241.91,94.792 C246.142,96.448 253.134,100.772 253.134,103.808 C253.134,109.144 245.958,117.792 233.722,123.588 L233.63,118.344 C235.746,116.78 238.782,114.02 239.61,110.8 C237.862,110.34 234.09,109.512 232.342,108.776 C230.962,108.224 230.134,107.028 229.582,105.096 C228.202,100.496 227.834,95.16 227.834,92.676 Z M290.67,112.272 L291.498,114.388 L285.426,119.632 C284.046,115.308 282.298,111.076 277.882,106.384 C273.466,109.42 268.13,116.044 264.726,123.036 L260.402,124.048 C258.378,115.676 257.734,105.464 258.378,101.324 C258.746,98.656 270.798,73.356 281.746,59.648 C285.058,59.28 288.002,59.372 290.67,60.016 C290.026,66.732 284.138,80.9 277.974,87.892 C276.594,91.572 271.81,103.072 269.878,107.488 L270.43,107.764 C274.754,99.852 278.71,94.7 283.31,88.168 L285.518,88.352 L286.346,86.88 L290.762,87.064 C292.142,94.424 293.614,107.672 293.154,108.96 C292.694,110.064 291.59,111.26 290.67,112.272 Z M311.554,99.668 L310.726,102.98 L305.666,104.544 C307.414,90.928 305.298,82.096 309.53,66.18 L308.518,61.672 C310.818,60.292 312.75,59.372 315.05,58.544 C317.442,59.372 321.122,62.316 322.686,64.248 C323.79,65.444 323.698,65.444 322.87,67.928 C321.306,72.804 317.81,83.016 316.614,94.332 C316.338,97.092 315.602,97.828 311.554,99.668 Z M311.094,117.976 L307.23,117.884 L303.366,121.104 C302.446,120.184 301.25,119.54 301.158,117.056 C301.158,116.044 302.814,112.548 303.826,110.34 C304.194,109.604 304.654,109.052 305.482,108.408 C307.138,107.212 311.094,106.016 312.198,105.924 C313.578,105.832 313.854,106.568 313.946,107.12 C313.946,108.132 313.21,114.848 311.094,117.976 Z" id="Perish!"></path>
            </g>
        </g>
    </g>
</svg>
